X: 67
T: Old Grey Cat v.1
P: piffero primo b0085
O: Ruthie Dornfeld
%R: jig
F: http://ancients.sudburymuster.org/mus/ssp/pdf/bluehillF.pdf
F: http://ancients.sudburymuster.org/mus/sng/pdf/oldgreycatC0.pdf
Z: 2019 John Chambers <jc:trillian.mit.edu>
M: 4/4
L: 1/8
K: Edor
Bd |\
e2e2 E3F | GFGA BABc | d2d2 D3E | FAdB AFED |\
e2e2 E3F | GFGA BABc |
dcBA BAGF | DE2F E2 ||\
Bd |\
e2e2 E3F | GABA BABc | d2d2 D3E | FAdB AFED |
edBG EDEF | GFGA BABc | dcBA BAGF | E2EE E2 ||\
GA |\
B2e2 e3d | Bdef gfed |
Ad3 d3B | ABdf edBd |\
e2B2 g2B2 | a2B2 b3a | gfed BA^d2 | e4 e2 ||\
GA |\
B2e2 g3d |
Bdef gfed | A2d2 f3B | ABdf edBd |\
EGBe GBdg | Acea B^dfb | (3agf ed B2^d2 | e4 ez |]


